!!!!SEGMENT: pl-kk--kk-i-14--009_anonim--gaude-maria-virgo.krn
!!!id: 17xx:2197
!!!COM: Anonim
!!!COM-rism: pe30004985
!!!CDT:
!!!CNT:
!!!OTL: Gaude Maria virgo
!!!PDT:
!!!SMS-siglum: PL-Kk
!!!SMS-shelfmark: Kk.I.14
!!!NIFC-rismID: 1001154390
!!!URL-scan: http://repozytorium.nifc.pl/skany/pl-kk-nut--i-14
!!!ONB-nifc: UWAGA: T (skan 0006-0007), B (0019). Następny utwór: Haec dies quam fecit
!!!SMS-variant:
!!!SMS-altvar:
**kern	**text	**kern	**text
*part2	*part2	*part1	*part1
*staff2	*staff2	*staff1	*staff1
*I"Baſſo.	*	*I"[Soprano]	*
*I'B	*	*I'[S]	*
*clefF4	*	*clefC1	*
*k[]	*	*k[]	*
*M2/1	*	*M2/1	*
*met(C)	*	*met(C)	*
*all\right	*	*all\right	*
=1-	=1-	=1-	=1-
0r	.	00r	.
=2-	=2-	=2-	=2-
2C/	Gau-	.	.
2C/	-de	.	.
4D\	gau-	.	.
4C\	.	.	.
4D\	.	.	.
!LO:TX:t=P:problem:kreska pseudotaktowa	!	!	!
4E\	.	.	.
=3-	=3-	=3-	=3-
4F\	.	00r	.
4C/	.	.	.
1F	.	.	.
*2\right	*	*	*
!LO:TX:t=P:problem:kreska pseudotaktowa	!	!	!
2E\	-de	.	.
=4-	=4-	=4-	=4-
1D	gau-	.	.
2C,</	-de	.	.
!LO:TX:t=P:problem:kreska pseudotaktowa	!	!	!
2c\	Ma-	.	.
=5-	=5-	=5-	=5-
2c\	-ri-	0r	.
2B\	-a	.	.
2A\	Vir-	.	.
!LO:TX:t=P:problem:kreska pseudotaktowa	!	!	!
2A\	-go	.	.
=6-	=6-	=6-	=6-
4G\	gau-	2g/	Gau-
4F\	.	.	.
4G\	.	2g/	-de
!LO:TX:t=P:problem:kreska pseudotaktowa	!	!	!
4E\	.	.	.
4F\	.	4a\	gau-
4E\	.	4g\	.
4F\	.	4a\	.
!	!	!LO:TX:t=P:problem:kreska pseudotaktowa	!
4D\	.	4b\	.
!LO:LB:g=original	!	!	!
=7-	=7-	=7-	=7-
4C/	.	4cc\	.
4D\	.	4g\	.
4E\	.	1cc	.
4F\	.	.	.
2G\	.	.	.
*	*	*2\right	*
!	!	!LO:TX:t=P:problem:kreska pseudotaktowa	!
2G\	-de	2b\	.
=8-	=8-	=8-	=8-
2rF	.	1a	.
2A\	Ma-	.	.
2E\	-ri-	2g/	-de
2E\	-a	2g/	Ma-
=9-	=9-	=9-	=9-
2.F\	Vir-	2a\	-ri-
.	.	2a\	-a
4E\	.	.	.
2D/	.	2b\	Vir-
2C/	.	1cc\	.
=10-	=10-	=10-	=10-
1G	.	.	.
.	.	2b\	.
2C/	-go	1cc	-go
1C/	cun-	.	.
!	!	!LO:LB:g=original	!
=11-	=11-	=11-	=11-
.	.	0r	.
2AA/	-ctas	.	.
2.D/	hae-	.	.
!LO:TX:t=P:problem:kreska pseudotaktowa	!	!	!
4C/	-re-	.	.
=12-	=12-	=12-	=12-
2BB/	-ſes	2r	.
*	*ij	*	*
1E	cun-	1g	Cun-
2C/	-ctas	2e/	-ctas
=13-	=13-	=13-	=13-
2.F\	hae-	2.a\	hae-
4E\	-re-	4g/	-re-
2D\	-ſes	2f/	-ſes
*	*Xij	*	*
2G\	ſo-	2b\	ſo-
!LO:LB:g=original	!	!	!
=14-	=14-	=14-	=14-
2E\	-la	2g/	-la
2C/	in-	2cc\	in-
2G\	-te-	2b\	-te-
2A\	-re-	2cc\	-re-
=15-	=15-	=15-	=15-
2G\	.	0dd	-mi-
2F\	.	.	.
1G	-mi-	.	.
=16-	=16-	=16-	=16-
2C/	-ſti	2cc\	-ſti
2r	.	2rb	.
0r	.	1rdd	.
=17-	=17-	=17-	=17-
.	.	2rb	.
.	.	2cc\	quae
1r	.	2cc\	Ga-
!	!	!LO:TX:t=P:problem:kreska pseudotaktowa	!
.	.	2b\	-bri-
=18-	=18-	=18-	=18-
2r	.	2cc\	-e-
2G\	quae	4b\	-lis
.	.	4b\	Ar-
2G\	Ga-	2.a\	-chan-
2F#X\	-bri-	.	.
.	.	4a\	-ge-
!	!	!LO:LB:g=original	!
=19-	=19-	=19-	=19-
2G\	-e-	1g	-li
4E\	-lis	.	.
4E\	Ar-	.	.
2.D/	-chan-	1rg	.
!LO:TX:t=P:problem:kreska pseudotaktowa	!	!	!
4D/	-ge-	.	.
=20-	=20-	=20-	=20-
2C/	-li	1g	di-
1C	di-	.	.
.	.	1a	-ctis
1D\	-ctis	.	.
=21-	=21-	=21-	=21-
.	.	1b	cre-
1E	cre-	.	.
.	.	1cc	-di-
!LO:LB:g=original	!	!	!
!LO:TX:t=P:problem:kreska pseudotaktowa	!	!	!
2Fny\	-di-	.	.
=22-	=22-	=22-	=22-
0E	-di-	2b\	-di-
.	.	1a	.
.	.	2g#X\	.
=23-	=23-	=23-	=23-
1AA	-ſti	1a	-sti
1rE	.	00r	.
=24-	=24-	=24-	=24-
2r	.	.	.
2AA/	dum	.	.
2D\	Vir-	.	.
2E\	-go	.	.
=25-	=25-	=25-	=25-
1F	DE-	.	.
2E\	-um	2r	.
1A\	et	2e/	dum
=26-	=26-	=26-	=26-
.	.	2a\	Vir-
1G	ho-	2b\	-go
!	!	!LO:TX:t=P:problem:kreska pseudotaktowa	!
.	.	1cc	DE-
1F\	.	.	.
=27-	=27-	=27-	=27-
.	.	2b\	-um
!LO:TX:t=P:problem:kreska pseudotaktowa	!	!	!
2E\	.	1ee	et
4D\	.	.	.
4E\	.	.	.
4F\	.	1dd\	ho-
4G\	.	.	.
=28-	=28-	=28-	=28-
2.A\	.	.	.
.	.	2cc\	.
4A\	-mi-	.	.
2E\	-nem	2b\	-mi-
!	!	!LO:TX:t=P:problem:kreska pseudotaktowa	!
2E\	et	2b\	.
!LO:LB:g=original	!	!LO:PB:g=original	!
=29-	=29-	=29-	=29-
2F\	ho-	2a,<\	-nem
2F\	-mi-	2a\	DE-
2C/	-nem	2gny/	-um
1c\	ge-	2cc\	et
=30-	=30-	=30-	=30-
.	.	2a\	ho-
2B\	.	2b\	.
2A\	.	2cc\	.
!	!	!LO:TX:t=P:problem:kreska pseudotaktowa	!
2G\	.	2dd\	-mi-
=31-	=31-	=31-	=31-
1F	.	2ee\	-nem
.	.	1dd	ge-
1G	-nu-	.	.
.	.	2dd\	-nu-
=32-	=32-	=32-	=32-
1A	-i-	1a	-i-
1D	-ſti	1a	-ſti
=33-	=33-	=33-	=33-
0r	.	2rb	.
.	.	1dd	et
.	.	2dd\	poſt
=34-	=34-	=34-	=34-
1r	.	2b\	par-
.	.	2g/	-tum
2r	.	1dd	Vir-
1G\	et	.	.
!	!	!LO:LB:g=original	!
=35-	=35-	=35-	=35-
.	.	2dd\	-go
2G\	poſt	2dd\	poſt
2E\	par-	1ee	par-
2C/	-tum	.	.
=36-	=36-	=36-	=36-
2E\	Vir-	1ee	-tum
!LO:TX:t=P:problem:kreska pseudotaktowa	!	!	!
2F#X\	.	.	.
!LO:LB:g=original	!	!	!
2G\	-go	1dd	Vir-
2G\	in-	.	.
=37-	=37-	=37-	=37-
2E\	-vio-	1cc	-go
2A\	-la-	.	.
2G\	.	0rb	.
!LO:TX:t=P:problem:kreska pseudotaktowa	!	!	!
2Fny\	.	.	.
=38-	=38-	=38-	=38-
4E\	.	.	.
4D\	.	.	.
4E\	.	.	.
4C\	.	.	.
2G\	.	2rb	.
2G\	-ta	2dd\	in-
=39-	=39-	=39-	=39-
1G	per-	2b\	-vi-
.	.	2ee\	-o-
00G	-man-	2dd\	-la-
.	.	2cc\	.
=40-	=40-	=40-	=40-
.	.	4b\	.
.	.	4a\	.
.	.	4b\	.
.	.	4g\	.
.	.	2dd\	.
.	.	2cc\	-ta
=41-	=41-	=41-	=41-
.	.	2b\	per-
.	.	2cc\	-man-
1G	-ſi-	1dd	-ſi-
!	!	!LO:LB:g=original	!
=42-	=42-	=42-	=42-
1C	-sti	1cc	-sti
00r	.	1r	.
=43-	=43-	=43-	=43-
.	.	2rb	.
.	.	2g/	in-
.	.	2e/	-vio-
.	.	2a\	-la-
=44-	=44-	=44-	=44-
.	.	2g/	.
.	.	2f/	.
2r	.	2e/	.
1C/	DE-	2c/	-ta
=45-	=45-	=45-	=45-
.	.	4g/	per-
.	.	4g/	-man-
2E\	-i	1cc	-ſi-
2F\	Ge-	.	.
2D/	-ni-	2b\	.
!LO:LB:g=original	!	!	!
=46-	=46-	=46-	=46-
2C/	-trix	1cc	-sti
1C	in-	.	.
.	.	00r	.
2BB/	-ter-	.	.
=47-	=47-	=47-	=47-
4AA/	-ce-	.	.
4BB/	.	.	.
4C/	.	.	.
4D/	.	.	.
2E\	.	.	.
1F\	.	.	.
=48-	=48-	=48-	=48-
2E\	.	.	.
4D\	.	1ra	.
4E\	.	.	.
4F\	.	.	.
4G\	.	.	.
=49-	=49-	=49-	=49-
2A\	.	2r	.
2E\	.	1g	DE-
2G\	-de	.	.
2G\	pro	2b\	-i
=50-	=50-	=50-	=50-
1F	No-	2cc\	Ge-
.	.	2a\	-ni-
!LO:TX:t=P:problem:kreska pseudotaktowa	!	!LO:LB:g=original	!
1E	.	2g\	-trix
.	.	1cc\	in-
=51-	=51-	=51-	=51-
1D	.	.	.
.	.	2b\	-ter-
2C/	-bis	1cc	-ce-
2F\	in-	.	.
=52-	=52-	=52-	=52-
2E\	-ter-	1cc	-de
2F\	-ce-	.	.
2C/	-de	2rb	.
!	!	!LO:TX:t=P:problem:kreska pseudotaktowa	!
2r	.	2ee\	in-
=53-	=53-	=53-	=53-
1r	.	2dd\	-ter-
.	.	2ee\	-ce-
2r	.	2b\	-de
!	!	!LO:TX:t=P:problem:kreska pseudotaktowa	!
1E\	in-	2cc\	in-
=54-	=54-	=54-	=54-
.	.	2g\	-ter-
2F\	-ter-	2cc\	-ce-
0G	-ce-	2b\	-de
!	!	!LO:TX:t=P:problem:kreska pseudotaktowa	!
.	.	2ee\	pro
=55-	=55-	=55-	=55-
.	.	1dd	No-
2C/	-de	2cc\	-bis
!LO:TX:b:t=adagio	!	!	!
1F\	pro	(1a\	pro
=56-	=56-	=56-	=56-
2E\	.	2g\)	.
1F	No-	1a	No-
=57-	=57-	=57-	=57-
0Cl	-bis	0gl;	-bis
==	==	==	==
*-	*-	*-	*-
!!!system-decoration: [(s1,s2)]
!!!RDF**kern: > = above
!!!RDF**kern: < = below
!!!RDF**kern: l = terminal long
!!!ENC: Andrzej Kubiczek
!!!END: 2021-07-17
!!!ENC: Anastazja Marusiak
!!!END: 2021-07-01
